public/images/social-media/tg.svg

<svg width="48" height="48" viewBox="0 0 48 48" fill="none" xmlns="http://www.w3.org/2000/svg">
<rect width="48" height="48" rx="24" fill="#FF48B6" fill-opacity="0.1"/>
<path d="M32.4602 15.0016C32.1893 15.0135 31.937 15.0924 31.7148 15.1822C31.5067 15.2659 30.7116 15.607 29.4591 16.144C28.2056 16.6816 26.5459 17.3942 24.7753 18.1556C21.2343 19.6784 17.2532 21.3925 15.2141 22.2698C15.1374 22.3027 14.8699 22.3882 14.5859 22.6099C14.3019 22.8316 14 23.291 14 23.8028C14 24.2156 14.1967 24.6256 14.4443 24.8704C14.6919 25.1152 14.9539 25.2362 15.1783 25.3277C15.9925 25.66 18.5178 26.6934 18.9946 26.8885C19.1625 27.4026 20.0765 30.1986 20.2885 30.8839C20.4282 31.3361 20.5612 31.6193 20.7344 31.8441C20.821 31.9564 20.9216 32.0549 21.0436 32.1321C21.0924 32.163 21.1458 32.1867 21.1998 32.2086L21.2031 32.2102C21.2155 32.2152 21.2263 32.2237 21.2389 32.2281C21.2627 32.2365 21.2786 32.2375 21.3105 32.2444C21.4374 32.2854 21.5656 32.3111 21.6799 32.3111C22.1675 32.3111 22.466 32.0426 22.466 32.0426L22.4839 32.0296L24.9918 29.8602L28.0335 32.7375C28.0763 32.7981 28.4757 33.3462 29.3566 33.3462C29.8796 33.3462 30.2946 33.0837 30.5609 32.8043C30.8273 32.5248 30.9933 32.2311 31.0638 31.862V31.8603C31.1298 31.5115 33.933 17.1205 33.933 17.1205L33.9281 17.14C34.0102 16.7655 34.0317 16.4167 33.9411 16.0724C33.8506 15.7282 33.612 15.3986 33.3162 15.2213C33.0204 15.044 32.731 14.9896 32.4602 15.0016ZM32.3039 16.7429C32.2999 16.7673 32.3069 16.755 32.3007 16.7836L32.299 16.7934L32.2974 16.8032C32.2974 16.8032 29.5289 31.0101 29.4266 31.5511C29.4341 31.5103 29.3999 31.5915 29.3648 31.6406C29.3151 31.6064 29.2134 31.5625 29.2134 31.5625L29.1971 31.5446L25.0422 27.6143L22.1047 30.1531L22.9786 26.6541C22.9786 26.6541 28.4416 20.9991 28.7707 20.67C29.0357 20.4067 29.0913 20.3149 29.0913 20.2241C29.0913 20.1024 29.0279 20.0141 28.8863 20.0141C28.7588 20.0141 28.5874 20.1381 28.4957 20.1964C27.3016 20.9576 22.0591 24.013 19.7091 25.3798C19.3356 25.227 16.7411 24.165 15.8618 23.8061C15.8685 23.8032 15.8663 23.8042 15.8732 23.8012C17.9129 22.9237 21.8923 21.2096 25.4328 19.687C27.2031 18.9257 28.8641 18.2126 30.1166 17.6755C31.3498 17.1466 32.2067 16.7827 32.3039 16.7429Z" fill="#F888CB"/>
</svg>

<svg xmlns="http://www.w3.org/2000/svg" width="48" height="48" fill="none"><rect width="48" height="48" fill="#FF48B6" fill-opacity=".1" rx="24"/><path fill="#F888CB" d="M32.46 15.002c-.27.011-.523.09-.745.18-.208.084-1.003.425-2.256.962-1.253.538-2.913 1.25-4.684 2.012-3.54 1.522-7.522 3.236-9.56 4.114-.078.033-.345.118-.63.34-.283.222-.585.681-.585 1.193 0 .413.197.823.444 1.067.248.245.51.366.734.458l3.817 1.56c.168.515 1.081 3.31 1.293 3.996.14.452.273.735.446.96q.129.17.31.288.073.045.156.077l.003.001c.012.005.023.014.036.018.024.008.04.01.072.016.126.041.255.067.369.067.488 0 .786-.268.786-.268l.018-.013 2.508-2.17 3.041 2.877c.043.061.443.61 1.324.61.523 0 .938-.263 1.204-.543s.432-.573.503-.942v-.002c.066-.348 2.869-14.74 2.869-14.74l-.005.02c.082-.375.104-.723.013-1.068a1.46 1.46 0 0 0-.625-.85 1.5 1.5 0 0 0-.856-.22m-.156 1.74c-.004.025.003.013-.003.042l-.002.01-.002.01S29.53 31.01 29.427 31.55c.007-.04-.027.04-.062.09a1 1 0 0 0-.152-.078l-.016-.018-4.155-3.93-2.937 2.538.874-3.499S28.442 21 28.77 20.67c.265-.263.32-.355.32-.446 0-.122-.063-.21-.205-.21-.127 0-.299.124-.39.182-1.194.762-6.437 3.817-8.787 5.184l-3.847-1.574.011-.005 9.56-4.114 4.684-2.012c1.233-.528 2.09-.892 2.187-.932"/></svg>
